X:846
T:John Naughton's
R:reel
Z:id:hn-reel-846
M:C|
L:1/8
K:Gdor
DG~G2 Acdc | AF~F2 AFGF | DG~G2 Acde |1 fdcA AGGF :|2 fdcA AGG2 ||
g4 gfdc | Acde f2df | g4 gfde | fdcA AGG2 |
g4 gfdc | Acde f3g | ag~g2 gfde | fdcA AGGF ||

